src/assets/outline/WalletMinus.svg

<svg width="24" height="24" viewBox="0 0 24 24"  xmlns="http://www.w3.org/2000/svg">
<path d="M14.5 16.75H9.5C9.09 16.75 8.75 16.41 8.75 16C8.75 15.59 9.09 15.25 9.5 15.25H14.5C14.91 15.25 15.25 15.59 15.25 16C15.25 16.41 14.91 16.75 14.5 16.75Z" />
<path d="M5.20018 10.46C5.01018 10.46 4.82018 10.38 4.67018 10.24C4.46018 10.03 4.39018 9.7 4.51018 9.42L6.37018 4.98C6.41018 4.89 6.43018 4.83 6.46018 4.78C7.94018 1.37 9.83018 0.539999 13.1702 1.82C13.3602 1.89 13.5102 2.04 13.5902 2.23C13.6702 2.42 13.6702 2.63 13.5902 2.82L10.6602 9.62C10.5402 9.89 10.2702 10.07 9.97018 10.07H7.12018C6.55018 10.07 6.01018 10.18 5.49018 10.4C5.40018 10.44 5.30018 10.46 5.20018 10.46ZM10.6102 2.75C9.37018 2.75 8.61018 3.56 7.82018 5.4C7.81018 5.43 7.79018 5.46 7.78018 5.49L6.47018 8.6C6.69018 8.58 6.90018 8.57 7.12018 8.57H9.47018L11.8802 2.97C11.4102 2.82 10.9902 2.75 10.6102 2.75Z" />
<path d="M18.2902 10.27C18.2202 10.27 18.1402 10.26 18.0702 10.24C17.7002 10.13 17.2902 10.07 16.8702 10.07H9.97023C9.72023 10.07 9.48023 9.94002 9.34023 9.73002C9.21023 9.52002 9.18023 9.25002 9.28023 9.02002L12.1802 2.29002C12.3302 1.93002 12.7602 1.69002 13.1402 1.81002C13.2602 1.85002 13.3702 1.90002 13.4902 1.95002L15.8502 2.94002C17.2302 3.51002 18.1502 4.11002 18.7502 4.83002C18.8702 4.97002 18.9702 5.12002 19.0602 5.27002C19.1702 5.44002 19.2702 5.65002 19.3402 5.86002C19.3702 5.93002 19.4202 6.06002 19.4502 6.20002C19.7302 7.14002 19.5902 8.31002 18.9902 9.81002C18.8702 10.09 18.5902 10.27 18.2902 10.27ZM11.1102 8.57002H16.8802C17.2002 8.57002 17.5102 8.60002 17.8202 8.65002C18.1002 7.78002 18.1602 7.11002 18.0002 6.57002C17.9802 6.48002 17.9602 6.44002 17.9502 6.40002C17.8902 6.24002 17.8502 6.15002 17.8002 6.07002C17.7302 5.96002 17.6802 5.87002 17.6002 5.78002C17.1702 5.26002 16.4102 4.78002 15.2802 4.32002L13.3002 3.49002L11.1102 8.57002Z" />
<path d="M15.9 22.75H8.1C7.82 22.75 7.56 22.73 7.3 22.7C3.79 22.46 1.79 20.46 1.55 16.91C1.52 16.69 1.5 16.42 1.5 16.15V14.2C1.5 11.95 2.84 9.92001 4.91 9.02001C5.61 8.72001 6.36 8.57001 7.13 8.57001H16.89C17.46 8.57001 18.01 8.65001 18.52 8.81001C20.87 9.52001 22.52 11.74 22.52 14.2V16.15C22.52 16.37 22.51 16.58 22.5 16.78C22.28 20.69 20 22.75 15.9 22.75ZM7.12 10.07C6.55 10.07 6.01 10.18 5.49 10.4C3.97 11.06 2.99 12.55 2.99 14.2V16.15C2.99 16.36 3.01 16.57 3.03 16.77C3.22 19.62 4.62 21.02 7.43 21.21C7.68 21.24 7.88 21.26 8.09 21.26H15.89C19.19 21.26 20.81 19.81 20.97 16.71C20.98 16.53 20.99 16.35 20.99 16.15V14.2C20.99 12.39 19.78 10.77 18.06 10.24C17.69 10.13 17.28 10.07 16.86 10.07H7.12Z" />
<path d="M2.24023 14.95C1.83023 14.95 1.49023 14.61 1.49023 14.2V11.27C1.49023 8.11998 3.72023 5.39998 6.80023 4.79998C7.07023 4.74998 7.35023 4.84998 7.53023 5.05998C7.70023 5.26998 7.75023 5.56998 7.64023 5.81998L5.89023 9.99998C5.81023 10.18 5.67023 10.32 5.50023 10.4C3.98023 11.06 3.00023 12.55 3.00023 14.2C2.99023 14.61 2.66023 14.95 2.24023 14.95ZM5.60023 6.81998C4.32023 7.53998 3.39023 8.79998 3.10023 10.27C3.54023 9.81998 4.05023 9.43998 4.63023 9.15998L5.60023 6.81998Z" />
<path d="M21.7601 14.95C21.3501 14.95 21.0101 14.61 21.0101 14.2C21.0101 12.39 19.8001 10.77 18.0801 10.24C17.8801 10.18 17.7101 10.04 17.6201 9.85002C17.5301 9.66002 17.5201 9.44002 17.6001 9.25002C18.0701 8.08002 18.1901 7.23002 18.0001 6.57002C17.9801 6.48002 17.9601 6.44002 17.9501 6.40002C17.8201 6.11002 17.8901 5.77002 18.1201 5.55002C18.3501 5.33002 18.7001 5.28002 18.9801 5.43002C21.1601 6.57002 22.5101 8.81002 22.5101 11.27V14.2C22.5101 14.61 22.1701 14.95 21.7601 14.95ZM19.2501 9.09002C19.8801 9.38002 20.4401 9.79002 20.9101 10.28C20.7201 9.30002 20.2501 8.41002 19.5601 7.71002C19.5101 8.13002 19.4101 8.59002 19.2501 9.09002Z" />
</svg>

<?xml version="1.0" encoding="UTF-8"?>
<svg width="24" height="24" viewBox="0 0 24 24" xmlns="http://www.w3.org/2000/svg">
 <path d="m14.5 16.75h-5c-0.41 0-0.75-0.34-0.75-0.75s0.34-0.75 0.75-0.75h5c0.41 0 0.75 0.34 0.75 0.75s-0.34 0.75-0.75 0.75z"/>
 <path d="m5.2002 10.46c-0.19 0-0.38-0.08-0.53-0.22-0.21-0.21-0.28-0.54-0.16-0.82l1.86-4.44c0.04-0.09 0.06-0.15 0.09-0.2 1.48-3.41 3.37-4.24 6.71-2.96 0.19 0.07 0.34 0.22 0.42 0.41s0.08 0.4 0 0.59l-2.93 6.8c-0.12 0.27-0.39 0.45-0.69002 0.45h-2.85c-0.57 0-1.11 0.11-1.63 0.33-0.09 0.04-0.19 0.06-0.29 0.06zm5.41-7.71c-1.24 0-2 0.81-2.79 2.65-0.01 0.03-0.03 0.06-0.04 0.09l-1.31 3.11c0.22-0.02 0.43-0.03 0.65-0.03h2.35l2.41-5.6c-0.47-0.15-0.89-0.22-1.27-0.22z"/>
 <path d="m18.29 10.27c-0.07 0-0.15-0.01-0.22-0.03-0.37-0.11-0.78-0.17-1.2-0.17h-6.9c-0.25 0-0.49-0.12998-0.63-0.33998-0.13-0.21-0.16-0.48-0.06-0.71l2.9-6.73c0.15-0.36 0.58-0.6 0.96-0.48 0.12 0.04 0.23 0.09 0.35 0.14l2.36 0.99c1.38 0.57 2.3 1.17 2.9 1.89 0.12 0.14 0.22 0.29 0.31 0.44 0.11 0.17 0.21 0.38 0.28 0.59 0.03 0.07 0.08 0.2 0.11 0.34 0.28 0.94 0.14 2.11-0.46 3.61-0.12 0.27998-0.4 0.45998-0.7 0.45998zm-7.18-1.7h5.77c0.32 0 0.63 0.03 0.94 0.08 0.28-0.87 0.34-1.54 0.18-2.08-0.02-0.09-0.04-0.13-0.05-0.17-0.06-0.16-0.1-0.25-0.15-0.33-0.07-0.11-0.12-0.2-0.2-0.29-0.43-0.52-1.19-1-2.32-1.46l-1.98-0.83-2.19 5.08z"/>
 <path d="m15.9 22.75h-7.8c-0.28 0-0.54-0.02-0.8-0.05-3.51-0.24-5.51-2.24-5.75-5.79-0.03-0.22-0.05-0.49-0.05-0.76v-1.95c0-2.25 1.34-4.28 3.41-5.18 0.7-0.3 1.45-0.45 2.22-0.45h9.76c0.57 0 1.12 0.08 1.63 0.24 2.35 0.71 4 2.93 4 5.39v1.95c0 0.22-0.01 0.43-0.02 0.63-0.22 3.91-2.5 5.97-6.6 5.97zm-8.78-12.68c-0.57 0-1.11 0.11-1.63 0.33-1.52 0.66-2.5 2.15-2.5 3.8v1.95c0 0.21 0.02 0.42 0.04 0.62 0.19 2.85 1.59 4.25 4.4 4.44 0.25 0.03 0.45 0.05 0.66 0.05h7.8c3.3 0 4.92-1.45 5.08-4.55 0.01-0.18 0.02-0.36 0.02-0.56v-1.95c0-1.81-1.21-3.43-2.93-3.96-0.37-0.11-0.78-0.17-1.2-0.17h-9.74z"/>
 <path d="m2.2402 14.95c-0.41 0-0.75-0.34-0.75-0.75v-2.93c0-3.15 2.23-5.87 5.31-6.47 0.27-0.05 0.55 0.05 0.73 0.26 0.17 0.21 0.22 0.51 0.11 0.76l-1.75 4.18c-0.08 0.18002-0.22 0.32002-0.39 0.40002-1.52 0.66-2.5 2.15-2.5 3.8-0.01 0.41-0.34 0.75-0.76 0.75zm3.36-8.13c-1.28 0.72-2.21 1.98-2.5 3.45 0.44-0.45002 0.95-0.83002 1.53-1.11l0.97-2.34z"/>
 <path d="m21.76 14.95c-0.41 0-0.75-0.34-0.75-0.75 0-1.81-1.21-3.43-2.93-3.96-0.2-0.06-0.37-0.2-0.46-0.38998-0.09-0.19-0.1-0.41-0.02-0.6 0.47-1.17 0.59-2.02 0.4-2.68-0.02-0.09-0.04-0.13-0.05-0.17-0.13-0.29-0.06-0.63 0.17-0.85s0.58-0.27 0.86-0.12c2.18 1.14 3.53 3.38 3.53 5.84v2.93c0 0.41-0.34 0.75-0.75 0.75zm-2.51-5.86c0.63 0.29 1.19 0.7 1.66 1.19-0.19-0.97998-0.66-1.87-1.35-2.57-0.05 0.42-0.15 0.88-0.31 1.38z"/>
</svg>
